images/present-disabled.svg

<svg width="64" height="64" viewBox="0 0 64 64" fill="none" xmlns="http://www.w3.org/2000/svg">
<g opacity="0.5">
<g opacity="0.7">
<path fill-rule="evenodd" clip-rule="evenodd" d="M26.4056 18.7282C25.9843 18.048 25.022 18.0595 24.6402 18.7492C24.3536 19.267 24.543 19.9348 25.0585 20.2242L28.5292 22.1723L28.3615 21.8862L26.4056 18.7282ZM21.3507 16.7681C23.1299 13.5536 27.6151 13.5002 29.5786 16.6703L31.5602 19.8696L35.5898 26.7422L29.3273 26.7422C28.996 26.7422 28.6685 26.6559 28.3751 26.4912L23.3004 23.6429C20.8975 22.2942 20.0147 19.1817 21.3507 16.7681Z" fill="#7645D9"/>
<path fill-rule="evenodd" clip-rule="evenodd" d="M38.1027 18.7282C38.524 18.048 39.4863 18.0595 39.8681 18.7492C40.1547 19.267 39.9653 19.9348 39.4498 20.2242L35.9791 22.1722L36.1468 21.8862L38.1027 18.7282ZM43.1576 16.7681C41.3784 13.5536 36.8932 13.5002 34.9297 16.6703L32.9481 19.8696L28.9185 26.7422L35.181 26.7422C35.5123 26.7422 35.8398 26.6559 36.1332 26.4912L41.2079 23.6429C43.6109 22.2942 44.4936 19.1817 43.1576 16.7681Z" fill="#7645D9"/>
<path fill-rule="evenodd" clip-rule="evenodd" d="M19.0713 34.3107L45.3453 34.3107L45.3453 44.3815C45.3453 45.7953 44.1991 46.9415 42.7853 46.9415L21.6313 46.9415C20.2174 46.9415 19.0713 45.7953 19.0713 44.3815L19.0713 34.3107ZM47.9053 31.7507L47.9053 44.3815C47.9053 47.2092 45.613 49.5015 42.7853 49.5015L21.6313 49.5015C18.8036 49.5015 16.5113 47.2092 16.5113 44.3815L16.5113 31.7507L47.9053 31.7507Z" fill="#7645D9"/>
<path d="M34.8555 33.9338L29.6231 33.9338L29.6231 49.4887L34.8555 49.4887L34.8555 33.9338Z" fill="#7645D9"/>
<path d="M16.5422 36.9355L16.5422 42.3934L47.9363 42.3934L47.9363 36.9355L16.5422 36.9355Z" fill="#7645D9"/>
<path fill-rule="evenodd" clip-rule="evenodd" d="M18.2894 26.8808L46.1893 26.8808C46.8962 26.8808 47.4693 27.4539 47.4693 28.1608L47.4693 30.032C47.4693 30.7389 46.8962 31.312 46.1893 31.312L18.2894 31.312C17.5825 31.312 17.0094 30.7389 17.0094 30.032L17.0094 28.1608C17.0094 27.4539 17.5825 26.8808 18.2894 26.8808ZM46.1893 24.3208C48.3101 24.3208 50.0293 26.04 50.0293 28.1608L50.0293 30.032C50.0293 32.1528 48.3101 33.872 46.1893 33.872L18.2894 33.872C16.1686 33.872 14.4494 32.1528 14.4494 30.032L14.4494 28.1608C14.4494 26.04 16.1686 24.3208 18.2894 24.3208L46.1893 24.3208Z" fill="#7645D9"/>
<path d="M34.8555 24.3826L29.6231 24.3826L29.6231 33.9338L34.8555 33.9338L34.8555 24.3826Z" fill="#7645D9"/>
</g>
<path fill-rule="evenodd" clip-rule="evenodd" d="M51.8824 12.0828C51.4644 11.6649 51.0366 11.2628 50.5996 10.8766C39.5466 1.1084 22.6552 1.51047 12.0828 12.0828C1.51047 22.6552 1.1084 39.5466 10.8766 50.5996C11.2628 51.0366 11.6649 51.4644 12.0828 51.8824C12.5008 52.3004 12.9287 52.7025 13.3656 53.0886C24.4186 62.8569 41.31 62.4548 51.8824 51.8824C62.4548 41.31 62.8569 24.4186 53.0886 13.3656C52.7025 12.9287 52.3004 12.5008 51.8824 12.0828ZM48.1051 13.3711C38.4321 4.97437 23.7691 5.37461 14.5719 14.5719C5.37461 23.7691 4.97437 38.4321 13.3711 48.1051L48.1051 13.3711ZM15.8602 50.5941L50.5941 15.8602C58.9909 25.5331 58.5906 40.1961 49.3934 49.3934C40.1961 58.5906 25.5331 58.9909 15.8602 50.5941Z" fill="#7645D9"/>
</g>
</svg>

<svg xmlns="http://www.w3.org/2000/svg" xmlns:v="https://vecta.io/nano" width="64" height="64" fill="none" opacity=".5"><g opacity=".7"><g fill="#7645d9" fill-rule="evenodd"><path d="M26.406 18.728c-.421-.68-1.384-.669-1.765.021-.287.518-.097 1.186.418 1.475l3.471 1.948-.168-.286-1.956-3.158zm-5.055-1.96c1.779-3.215 6.264-3.268 8.228-.098l1.982 3.199 4.03 6.873h-6.262c-.331 0-.659-.086-.952-.251L23.3 23.643a5.11 5.11 0 0 1-1.95-6.875z"/><path d="M38.103 18.728c.421-.68 1.384-.669 1.765.021.287.518.097 1.186-.418 1.475l-3.471 1.948.168-.286 1.956-3.158zm5.055-1.96c-1.779-3.215-6.264-3.268-8.228-.098l-1.982 3.199-4.03 6.873h6.262a1.94 1.94 0 0 0 .952-.251l5.075-2.848a5.11 5.11 0 0 0 1.95-6.875zM19.071 34.311h26.274v10.071a2.56 2.56 0 0 1-2.56 2.56H21.631a2.56 2.56 0 0 1-2.56-2.56V34.311zm28.834-2.56v12.631a5.12 5.12 0 0 1-5.12 5.12H21.631a5.12 5.12 0 0 1-5.12-5.12V31.751h31.394z"/></g><path fill="#7645d9" d="M34.856 33.934h-5.232v15.555h5.232V33.934z"/><path fill="#7645d9" d="M16.542 36.936v5.458h31.394v-5.458H16.542z"/><path fill="#7645d9" fill-rule="evenodd" d="M18.289 26.881h27.9a1.28 1.28 0 0 1 1.28 1.28v1.871a1.28 1.28 0 0 1-1.28 1.28h-27.9a1.28 1.28 0 0 1-1.28-1.28v-1.871a1.28 1.28 0 0 1 1.28-1.28zm27.9-2.56a3.84 3.84 0 0 1 3.84 3.84v1.871a3.84 3.84 0 0 1-3.84 3.84h-27.9a3.84 3.84 0 0 1-3.84-3.84v-1.871a3.84 3.84 0 0 1 3.84-3.84h27.9z"/><path fill="#7645d9" d="M34.856 24.383h-5.232v9.551h5.232v-9.551z"/></g><path fill="#7645d9" fill-rule="evenodd" d="M51.882 12.083L50.6 10.877C39.547 1.108 22.655 1.51 12.083 12.083S1.108 39.547 10.877 50.6a28.63 28.63 0 0 0 1.206 1.283c.418.418.846.82 1.283 1.206 11.053 9.768 27.944 9.366 38.517-1.206s10.975-27.464 1.206-38.517c-.386-.437-.788-.865-1.206-1.283zm-3.777 1.288c-9.673-8.397-24.336-7.996-33.533 1.201s-9.598 23.86-1.201 33.533l34.734-34.734zM15.86 50.594L50.594 15.86c8.397 9.673 7.997 24.336-1.201 33.533s-23.86 9.598-33.533 1.201z"/></svg>
